X: 37893
T: Souter Creek
R: reel
M: 4/4
K: Gmajor
"G"B>dc>B G>DG>A|"C"B2A>G E>GG>A|"G/B"B/c/d c>B G2 g>a|"Em"b>ag>d "D"B>ee>d|
"G"B/c/d c>B G>DG>A|"C"B2A>G E>Gg>a|"Em"b>ag>d "C"c2 B/c/d|"D"c2 B/A/G D>G G2:|
"G"D>GB>d c2B>G|"C"E>Gc>d c>B G2|"G/B"D>GB>G "C"E>Gc>d|"D"A>dd>c B2 A>G|
"G"D>G B/c/d c3B|"C"E>Gc>d c>Bg>a|"Em"b>ag>d "C"c2 B/c/d|"D"c2 B/A/G D>G G2:|

